X: 14
T:All Those Endearing Young Charms
% Nottingham Music Database
S:Kevin Briggs
M:3/4
L:1/4
K:G
B/2A/2|"G"G3/2A/2G|"G7"GBd|"C"ceg|"C"g2f/2e/2|"G"d3/2c/2B|"D7"AGA|"G"BdB|
"D7"A2B/2A/2|"G"G3/2A/2G|"G7"GBd|"C"ceg|"C"g2f/2e/2|"G"dgB|"D7"A3/2G/2A|"G"G3-\
|
"D7"Gdc|"G"Bdg|"G7"g2d|"C"ecg|"C"g2f/2e/2|"G"d3/2c/2B|"D7"AGA|"G"BdB|
"D7"A2B/2A/2|"G"G3/2A/2G|"G7"GBd|"C"ceg|"C"g2f/2e/2|"G"dgB|"D7"A3/2G/2A|"G"G3-\
|"G"G2||<end>
<start>
